source/img/energo/activity-2.svg

<svg width="312" height="134" viewBox="0 0 312 134" fill="none" xmlns="http://www.w3.org/2000/svg">
<path fill-rule="evenodd" clip-rule="evenodd" d="M71.1466 42.9362C78.4318 49.6092 83 59.2004 83 69.8585C83 90.0169 66.6584 106.359 46.5 106.359C26.3416 106.359 10 90.0169 10 69.8585C10 59.3504 14.4405 49.8794 21.5474 43.2196L20.1505 41.7878C12.6715 48.811 8 58.7892 8 69.8585C8 91.1215 25.237 108.359 46.5 108.359C67.763 108.359 85 91.1215 85 69.8585C85 58.6293 80.1926 48.523 72.5237 41.4854L71.1466 42.9362Z" fill="white"/>
<path fill-rule="evenodd" clip-rule="evenodd" d="M75.1983 38.168C84.2726 46.1403 90 57.8308 90 70.859C90 94.8834 70.5244 114.359 46.5 114.359C22.4756 114.359 3 94.8834 3 70.859C3 58.01 8.57095 46.4621 17.4292 38.499L16.0314 37.0663C6.80144 45.3936 1 57.4488 1 70.859C1 95.988 21.371 116.359 46.5 116.359C71.629 116.359 92 95.988 92 70.859C92 57.2598 86.0338 45.054 76.5761 36.7163L75.1983 38.168Z" fill="white"/>
<path fill-rule="evenodd" clip-rule="evenodd" d="M71.8115 23.822L58.8062 38.7318L67.0958 45.9625L80.1011 31.0527L71.8115 23.822ZM55.9844 38.9243L67.2883 48.7844L82.9229 30.8602L71.619 21.0002L55.9844 38.9243Z" fill="white"/>
<path fill-rule="evenodd" clip-rule="evenodd" d="M60.0859 34.2728L55.5859 29.7728L58.4144 26.9443L62.9144 31.4443L60.0859 34.2728Z" fill="white"/>
<path fill-rule="evenodd" clip-rule="evenodd" d="M65.0859 29.2728L60.5859 24.7728L63.4144 21.9443L67.9144 26.4443L65.0859 29.2728Z" fill="white"/>
<path fill-rule="evenodd" clip-rule="evenodd" d="M36.516 80.2551C48.8734 78.9688 53.9401 75.6046 55.5667 72.3268C57.1892 69.0574 55.6364 65.3067 53.3726 62.6617C49.9048 60.9173 47.2227 60.687 45.1487 61.2992C43.0361 61.9227 41.3628 63.4768 40.0571 65.649C37.6186 69.7058 36.6481 75.6201 36.516 80.2551ZM44.5825 59.381C47.331 58.5698 50.6075 58.9926 54.4568 60.9692L54.6258 61.056L54.7512 61.1987C57.2543 64.0471 59.5647 68.7696 57.3583 73.2159C55.1743 77.6169 48.8268 81.1514 35.5905 82.3547L34.5 82.4538V81.3588C34.5 76.4567 35.4297 69.4652 38.3429 64.6186C39.8122 62.1742 41.8389 60.1908 44.5825 59.381Z" fill="white"/>
<path d="M51 69.3589C51 71.568 49.2091 73.3589 47 73.3589C44.7909 73.3589 43 71.568 43 69.3589C43 67.1497 44.7909 65.3589 47 65.3589C49.2091 65.3589 51 67.1497 51 69.3589Z" fill="white"/>
<path fill-rule="evenodd" clip-rule="evenodd" d="M46.5 44.3589V39.3589H47.5V44.3589H46.5Z" fill="white"/>
<path fill-rule="evenodd" clip-rule="evenodd" d="M46.5 103.359V98.3589H47.5V103.359H46.5Z" fill="white"/>
<path fill-rule="evenodd" clip-rule="evenodd" d="M39.294 45.391L37.752 40.6348L38.7032 40.3264L40.2452 45.0826L39.294 45.391Z" fill="white"/>
<path fill-rule="evenodd" clip-rule="evenodd" d="M39.294 97.3306L37.752 102.087L38.7032 102.395L40.2452 97.639L39.294 97.3306Z" fill="white"/>
<path fill-rule="evenodd" clip-rule="evenodd" d="M53.4775 97.3306L55.0195 102.087L54.0683 102.395L52.5263 97.639L53.4775 97.3306Z" fill="white"/>
<path fill-rule="evenodd" clip-rule="evenodd" d="M32.5938 48.6625L29.5996 44.6582L30.4005 44.0594L33.3947 48.0637L32.5938 48.6625Z" fill="white"/>
<path fill-rule="evenodd" clip-rule="evenodd" d="M32.5938 94.0591L29.5996 98.0635L30.4005 98.6623L33.3947 94.658L32.5938 94.0591Z" fill="white"/>
<path fill-rule="evenodd" clip-rule="evenodd" d="M60.1777 94.0591L63.1719 98.0635L62.371 98.6623L59.3768 94.658L60.1777 94.0591Z" fill="white"/>
<path fill-rule="evenodd" clip-rule="evenodd" d="M26.858 53.4918L23.6191 49.6826L24.381 49.0348L27.6199 52.844L26.858 53.4918Z" fill="white"/>
<path fill-rule="evenodd" clip-rule="evenodd" d="M26.858 89.2846L23.6191 93.0938L24.381 93.7415L27.6199 89.9324L26.858 89.2846Z" fill="white"/>
<path fill-rule="evenodd" clip-rule="evenodd" d="M64.3803 89.0346L67.6191 92.8438L66.8573 93.4915L63.6184 89.6824L64.3803 89.0346Z" fill="white"/>
<path fill-rule="evenodd" clip-rule="evenodd" d="M22.7563 58.6556L18.1133 56.8003L18.4843 55.8717L23.1274 57.727L22.7563 58.6556Z" fill="white"/>
<path fill-rule="evenodd" clip-rule="evenodd" d="M22.7563 84.1212L18.1133 85.9766L18.4843 86.9052L23.1274 85.0498L22.7563 84.1212Z" fill="white"/>
<path fill-rule="evenodd" clip-rule="evenodd" d="M70.1851 58.6556L74.8281 56.8003L74.4571 55.8717L69.814 57.727L70.1851 58.6556Z" fill="white"/>
<path fill-rule="evenodd" clip-rule="evenodd" d="M70.1851 84.1212L74.8281 85.9766L74.4571 86.9052L69.814 85.0498L70.1851 84.1212Z" fill="white"/>
<path fill-rule="evenodd" clip-rule="evenodd" d="M20.7919 64.9171L15.7988 64.6538L15.8515 63.6552L20.8446 63.9185L20.7919 64.9171Z" fill="white"/>
<path fill-rule="evenodd" clip-rule="evenodd" d="M20.7919 77.8593L15.7988 78.1226L15.8515 79.1212L20.8446 78.8579L20.7919 77.8593Z" fill="white"/>
<path fill-rule="evenodd" clip-rule="evenodd" d="M72.1495 64.9171L77.1426 64.6538L77.0899 63.6552L72.0969 63.9185L72.1495 64.9171Z" fill="white"/>
<path fill-rule="evenodd" clip-rule="evenodd" d="M72.1495 77.8593L77.1426 78.1226L77.0899 79.1212L72.0969 78.8579L72.1495 77.8593Z" fill="white"/>
<path fill-rule="evenodd" clip-rule="evenodd" d="M19.9921 72.0061L14.9922 71.9746L14.9985 70.9746L19.9984 71.0061L19.9921 72.0061Z" fill="white"/>
<path fill-rule="evenodd" clip-rule="evenodd" d="M72.9493 72.0061L77.9492 71.9746L77.9429 70.9746L72.943 71.0061L72.9493 72.0061Z" fill="white"/>
<rect x="135.135" y="25" width="28" height="5" rx="1" stroke="white" stroke-width="2"/>
<path d="M138.635 30.5V45.5L112.135 94.5C108.968 100.5 106.935 112.8 124.135 114H173.135C181.635 114 192.635 109.3 186.635 94.5L160.135 45.5V30.5" stroke="white" stroke-width="2"/>
<path d="M117.635 85C117.135 86.5 117.535 89.5 123.135 89.5C126.301 88.6667 133.035 88 134.635 92" stroke="white" stroke-width="2"/>
<path d="M163.135 93.5C164.968 93.8334 168.935 93.8 170.135 91C171.968 88.3334 176.835 83.8 181.635 87" stroke="white" stroke-width="2"/>
<path d="M139.632 79L149.132 61L159.633 79C166.632 93.5 156.635 97 149.132 97.5C134.635 97 136.132 85.5 139.632 79Z" stroke="white" stroke-width="2"/>
<path d="M157.135 85.0001C158.135 90.5 152.468 93.1671 151.135 93.0004C153.935 91.4005 152.135 89.5 153.135 86.5001C153.535 84.5001 155.968 84.6668 157.135 85.0001Z" fill="white"/>
</svg>

<svg width="312" height="134" fill="none" xmlns="http://www.w3.org/2000/svg"><path fill-rule="evenodd" clip-rule="evenodd" d="M71.147 42.936C78.432 49.61 83 59.2 83 69.86c0 20.158-16.342 36.5-36.5 36.5S10 90.017 10 69.859c0-10.509 4.44-19.98 11.547-26.64l-1.396-1.431C12.67 48.81 8 58.789 8 69.858c0 21.263 17.237 38.501 38.5 38.501S85 91.122 85 69.859c0-11.23-4.807-21.336-12.476-28.374l-1.377 1.451z" fill="#fff"/><path fill-rule="evenodd" clip-rule="evenodd" d="M75.198 38.168C84.273 46.14 90 57.831 90 70.859c0 24.024-19.476 43.5-43.5 43.5S3 94.883 3 70.859c0-12.849 5.57-24.397 14.43-32.36l-1.399-1.433C6.801 45.394 1 57.45 1 70.86c0 25.129 20.371 45.5 45.5 45.5S92 95.988 92 70.859c0-13.6-5.966-25.805-15.424-34.143l-1.378 1.452z" fill="#fff"/><path fill-rule="evenodd" clip-rule="evenodd" d="M71.811 23.822l-13.005 14.91 8.29 7.23L80.1 31.052l-8.29-7.23zM55.984 38.924l11.304 9.86L82.923 30.86 71.619 21 55.984 38.924z" fill="#fff"/><path fill-rule="evenodd" clip-rule="evenodd" d="M60.086 34.273l-4.5-4.5 2.828-2.829 4.5 4.5-2.828 2.829zm5-5l-4.5-4.5 2.828-2.829 4.5 4.5-2.828 2.829zm-28.57 50.982c12.357-1.286 17.424-4.65 19.05-7.928 1.623-3.27.07-7.02-2.193-9.665-3.468-1.745-6.15-1.975-8.224-1.363-2.113.624-3.786 2.178-5.092 4.35-2.438 4.057-3.409 9.971-3.541 14.606zm8.067-20.874c2.748-.811 6.025-.388 9.874 1.588l.169.087.125.143c2.503 2.848 4.814 7.57 2.607 12.017-2.184 4.4-8.531 7.935-21.767 9.139l-1.091.099v-1.095c0-4.902.93-11.894 3.843-16.74 1.47-2.445 3.496-4.428 6.24-5.238z" fill="#fff"/><path d="M51 69.359a4 4 0 11-8 0 4 4 0 018 0z" fill="#fff"/><path fill-rule="evenodd" clip-rule="evenodd" d="M46.5 44.359v-5h1v5h-1zm0 59v-5h1v5h-1zm-7.206-57.968l-1.542-4.756.951-.309 1.542 4.757-.951.308zm0 51.939l-1.542 4.757.951.308 1.542-4.756-.951-.308zm14.183 0l1.543 4.757-.952.308-1.542-4.756.951-.308zM32.594 48.663L29.6 44.657l.8-.599 2.995 4.005-.801.599zm0 45.397L29.6 98.063l.8.598 2.995-4.004-.801-.599zm27.584 0l2.994 4.004-.801.598-2.994-4.004.8-.599zm-33.32-40.568l-3.239-3.81.762-.647 3.239 3.809-.762.648zm0 35.793l-3.239 3.809.762.648 3.239-3.81-.762-.647zm37.522-.25l3.24 3.809-.763.648-3.239-3.81.762-.647zM22.756 58.656L18.113 56.8l.371-.928 4.643 1.855-.37.929zm0 25.465l-4.643 1.856.371.928 4.643-1.855-.37-.929zm47.429-25.465l4.643-1.856-.37-.928-4.644 1.855.371.929zm0 25.465l4.643 1.856-.37.928-4.644-1.855.371-.929zM20.792 64.917l-4.993-.263.053-.999 4.993.264-.053.998zm0 12.943l-4.993.263.053.998 4.993-.263-.053-.999zM72.15 64.917l4.993-.263-.053-.999-4.993.264.053.998zm0 12.943l4.993.263-.053.998-4.993-.263.053-.999zm-52.158-5.854l-5-.031.006-1 5 .031-.006 1zm52.958 0l5-.031-.007-1-5 .031.006 1z" fill="#fff"/><rect x="135.135" y="25" width="28" height="5" rx="1" stroke="#fff" stroke-width="2"/><path d="M138.635 30.5v15l-26.5 49c-3.167 6-5.2 18.3 12 19.5h49c8.5 0 19.5-4.7 13.5-19.5l-26.5-49v-15" stroke="#fff" stroke-width="2"/><path d="M117.635 85c-.5 1.5-.1 4.5 5.5 4.5 3.166-.833 9.9-1.5 11.5 2.5m28.5 1.5c1.833.333 5.8.3 7-2.5 1.833-2.667 6.7-7.2 11.5-4m-42.003-8l9.5-18 10.501 18c6.999 14.5-2.998 18-10.501 18.5-14.497-.5-13-12-9.5-18.5z" stroke="#fff" stroke-width="2"/><path d="M157.135 85c1 5.5-4.667 8.167-6 8 2.8-1.6 1-3.5 2-6.5.4-2 2.833-1.833 4-1.5z" fill="#fff"/></svg>
